icons/svg/sport/judo.svg

<svg width="580" height="580" viewBox="0 0 580 580" fill="none" xmlns="http://www.w3.org/2000/svg">
<g clip-path="url(#clip0)">
<path d="M66.2751 1.76815C24.9401 1.76815 1.7041 23.1391 1.7041 66.8041V516.927C1.7041 557.771 22.5991 579.156 63.8961 579.156H515.92C557.227 579.156 578.149 558.841 578.149 516.927V66.8041C578.149 24.2031 557.227 1.76815 514.628 1.76815C514.624 1.76815 66.1331 1.62515 66.2751 1.76815Z" fill="#111111" stroke="#EEEEEE" stroke-width="3.408"/>
<path d="M278.026 246.653C294.966 246.653 308.698 232.921 308.698 215.981C308.698 199.041 294.966 185.309 278.026 185.309C261.086 185.309 247.354 199.041 247.354 215.981C247.354 232.921 261.086 246.653 278.026 246.653Z" fill="white"/>
<path d="M127.714 362.67L38.26 452.301C31.498 457.737 29.288 467.327 33.354 475.326C37.995 484.474 49.265 488.099 58.414 483.414C59.651 482.752 60.8 482 61.86 481.117L153.701 389.144L131.647 367.177C130.233 365.809 128.907 364.306 127.714 362.67V362.67Z" fill="white"/>
<path d="M301.975 394.691C318.915 394.691 332.647 380.959 332.647 364.019C332.647 347.079 318.915 333.347 301.975 333.347C285.036 333.347 271.303 347.079 271.303 364.019C271.303 380.959 285.036 394.691 301.975 394.691Z" fill="white"/>
<path d="M438.761 221.219L370.479 152.406L370.39 96.8511C370.39 86.4201 361.949 77.9351 351.431 77.9351C341.884 77.9351 332.559 88.9851 332.559 96.8511V174.151C332.559 179.543 334.813 184.404 338.436 187.896L383.782 233.109L334.912 281.98L326.186 290.427L255.298 243.291C252.035 240.01 248.23 237.589 244.164 236.03C240.372 234.055 236.18 233.396 232.161 233.93C224.402 234.077 216.677 237.042 210.662 242.867L187.308 265.476L186.187 266.41L180.575 271.995L139.887 311.385C127.724 323.161 126.991 342.291 137.904 354.952C138.916 356.306 140.029 357.587 141.24 358.781L209.523 427.594L209.611 483.149C209.611 493.58 218.053 502.065 228.571 502.065C238.117 502.065 247.443 491.015 247.443 483.149V405.849C247.443 400.457 245.189 395.596 241.565 392.104L196.219 346.891L245.106 298.005L252.952 290.409L321.426 335.94C323.03 337.006 324.731 337.803 326.478 338.362C332.418 343.495 339.819 346.08 347.234 346.08C355.195 346.08 363.168 343.107 369.339 337.132L392.685 314.531L393.816 313.589L399.467 307.965L440.115 268.614C452.282 256.837 453.011 237.7 442.093 225.04C441.081 223.689 439.971 222.411 438.761 221.219V221.219Z" fill="white"/>
<path d="M546.645 104.674C542.005 95.5259 530.735 91.9009 521.586 96.5859C520.349 97.2479 519.198 97.9999 518.139 98.8839L426.299 190.856L448.353 212.823C449.766 214.192 451.094 215.695 452.287 217.331L541.74 127.7C548.501 122.264 550.711 112.673 546.645 104.674Z" fill="white"/>
</g>
<defs>
<clipPath id="clip0">
<path d="M0 0H580V580H0V0Z" fill="white"/>
</clipPath>
</defs>
</svg>

<?xml version="1.0" encoding="UTF-8" standalone="no"?>
<!-- Created with Inkscape (http://www.inkscape.org/) -->

<svg
   xmlns:dc="http://purl.org/dc/elements/1.1/"
   xmlns:cc="http://creativecommons.org/ns#"
   xmlns:rdf="http://www.w3.org/1999/02/22-rdf-syntax-ns#"
   xmlns:svg="http://www.w3.org/2000/svg"
   xmlns="http://www.w3.org/2000/svg"
   xmlns:sodipodi="http://sodipodi.sourceforge.net/DTD/sodipodi-0.dtd"
   xmlns:inkscape="http://www.inkscape.org/namespaces/inkscape"
   version="1.0"
   width="580"
   height="580"
   id="svg2"
   sodipodi:version="0.32"
   inkscape:version="0.91 r"
   sodipodi:docname="judo.svg"
   inkscape:output_extension="org.inkscape.output.svg.inkscape">
  <metadata
     id="metadata2975">
    <rdf:RDF>
      <cc:Work
         rdf:about="">
        <dc:format>image/svg+xml</dc:format>
        <dc:type
           rdf:resource="http://purl.org/dc/dcmitype/StillImage" />
        <cc:license
           rdf:resource="http://web.resource.org/cc/PublicDomain" />
        <dc:language>en</dc:language>
      </cc:Work>
    </rdf:RDF>
  </metadata>
  <sodipodi:namedview
     inkscape:window-height="739"
     inkscape:window-width="1332"
     inkscape:pageshadow="2"
     inkscape:pageopacity="0.0"
     guidetolerance="10.0"
     gridtolerance="10.0"
     objecttolerance="10.0"
     borderopacity="1.0"
     bordercolor="#666666"
     pagecolor="#ffffff"
     id="base"
     inkscape:zoom="0.46083856"
     inkscape:cx="-92.583821"
     inkscape:cy="279.4081"
     inkscape:window-x="34"
     inkscape:window-y="1024"
     inkscape:current-layer="svg2"
     showgrid="false"
     inkscape:window-maximized="1" />
  <defs
     id="defs4">
    <inkscape:perspective
       sodipodi:type="inkscape:persp3d"
       inkscape:vp_x="0 : 290 : 1"
       inkscape:vp_y="0 : 1000 : 0"
       inkscape:vp_z="580 : 290 : 1"
       inkscape:persp3d-origin="290 : 193.33333 : 1"
       id="perspective2441" />
    <inkscape:perspective
       id="perspective3452"
       inkscape:persp3d-origin="30 : 20 : 1"
       inkscape:vp_z="60 : 30 : 1"
       inkscape:vp_y="0 : 1000 : 0"
       inkscape:vp_x="0 : 30 : 1"
       sodipodi:type="inkscape:persp3d" />
    <symbol
       viewBox="244.5 110 489 219.9"
       id="symbol-university">
      <path
         id="path4460"
         d="M79,43l57,119c0,0,21-96,104-96s124,106,124,106l43-133l82-17L0,17L79,43z" />
      <path
         id="path4462"
         d="M94,176l-21,39"
         stroke-width="20"
         stroke="#000000"
         fill="none" />
      <path
         id="path4464"
         d="M300,19c0,10.5-22.6,19-50.5,19S199,29.5,199,19s22.6-19,50.5-19S300,8.5,300,19z" />
      <path
         id="path4466"
         d="M112,216l-16-38L64,88c0,0-9-8-4-35s16-24,16-24"
         stroke-width="20"
         stroke="#000000"
         ill="none" />
    </symbol>
    <inkscape:perspective
       id="perspective4471"
       inkscape:persp3d-origin="372.04724 : 350.78739 : 1"
       inkscape:vp_z="744.09448 : 526.18109 : 1"
       inkscape:vp_y="0 : 1000 : 0"
       inkscape:vp_x="0 : 526.18109 : 1"
       sodipodi:type="inkscape:persp3d" />
    <inkscape:perspective
       id="perspective4668"
       inkscape:persp3d-origin="6 : 4 : 1"
       inkscape:vp_z="12 : 6 : 1"
       inkscape:vp_y="0 : 1000 : 0"
       inkscape:vp_x="0 : 6 : 1"
       sodipodi:type="inkscape:persp3d" />
  </defs>
  <g
     id="g1327">
    <path
       d="M 66.275,1.768 C 24.94,1.768 1.704,23.139 1.704,66.804 L 1.704,516.927 C 1.704,557.771 22.599,579.156 63.896,579.156 L 515.92,579.156 C 557.227,579.156 578.149,558.841 578.149,516.927 L 578.149,66.804 C 578.149,24.203 557.227,1.768 514.628,1.768 C 514.624,1.768 66.133,1.625 66.275,1.768 z "
       style="fill:#111;stroke:#eee;stroke-width:3.40799999"
       id="path1329" />
  </g>
  <g
     id="g7"
     inkscape:output_extension="org.inkscape.output.svg.inkscape"
     sodipodi:docname="waste_bin.svg"
     inkscape:version="0.46"
     sodipodi:version="0.32">
    <g
       id="g9">
      <circle
         style="fill:#ffffff"
         cx="278.026"
         cy="215.981"
         r="30.672001"
         id="circle11" />
      <path
         style="fill:#ffffff"
         inkscape:connector-curvature="0"
         d="M 127.714,362.67 38.26,452.301 c -6.762,5.436 -8.972,15.026 -4.906,23.025 4.641,9.148 15.911,12.773 25.06,8.088 1.237,-0.662 2.386,-1.414 3.446,-2.297 l 91.841,-91.973 -22.054,-21.967 c -1.414,-1.368 -2.74,-2.871 -3.933,-4.507 z"
         id="path13" />
      <circle
         style="fill:#ffffff"
         cx="301.97501"
         cy="364.01901"
         r="30.672001"
         id="circle15" />
      <path
         style="fill:#ffffff"
         inkscape:connector-curvature="0"
         d="M 438.761,221.219 370.479,152.406 370.39,96.851 c 0,-10.431 -8.441,-18.916 -18.959,-18.916 -9.547,0 -18.872,11.05 -18.872,18.916 l 0,77.3 c 0,5.392 2.254,10.253 5.877,13.745 l 45.346,45.213 -48.87,48.871 -8.726,8.447 -70.888,-47.136 c -3.263,-3.281 -7.068,-5.702 -11.134,-7.261 -3.792,-1.975 -7.984,-2.634 -12.003,-2.1 -7.759,0.147 -15.484,3.112 -21.499,8.937 l -23.354,22.609 -1.121,0.934 -5.612,5.585 -40.688,39.39 c -12.163,11.776 -12.896,30.906 -1.983,43.567 1.012,1.354 2.125,2.635 3.336,3.829 l 68.283,68.813 0.088,55.555 c 0,10.431 8.442,18.916 18.96,18.916 9.546,0 18.872,-11.05 18.872,-18.916 l 0,-77.3 c 0,-5.392 -2.254,-10.253 -5.878,-13.745 l -45.346,-45.213 48.887,-48.886 7.846,-7.596 68.474,45.531 c 1.604,1.066 3.305,1.863 5.052,2.422 5.94,5.133 13.341,7.718 20.756,7.718 7.961,0 15.934,-2.973 22.105,-8.948 l 23.346,-22.601 1.131,-0.942 5.651,-5.624 40.648,-39.351 c 12.167,-11.777 12.896,-30.914 1.978,-43.574 -1.012,-1.351 -2.122,-2.629 -3.332,-3.821 z"
         id="path17" />
      <path
         style="fill:#ffffff"
         inkscape:connector-curvature="0"
         d="m 546.645,104.674 c -4.64,-9.148 -15.91,-12.773 -25.059,-8.088 -1.237,0.662 -2.388,1.414 -3.447,2.298 l -91.84,91.972 22.054,21.967 c 1.413,1.369 2.741,2.872 3.934,4.508 L 541.74,127.7 c 6.761,-5.436 8.971,-15.027 4.905,-23.026 z"
         id="path19" />
    </g>
  </g>
</svg>
